X: 5108
T: Bridge Of Garry
R: reel
M: 4/4
K: Amajor
a|A/A/A eA cAec|Bffe fBBa|A/A/A eA cAeA|EFAB cAA:|
g|a2 ea cAec|Bffe fBBg|aeea cAAF|EFAB cAAg|
a2 ea cAec|Bffe fBBg|afbg afed|ceBd cAA||

